assets/1. F-P/Japanese application button/Color/Japanese.Application.Button-color.svg

<svg width="100%" height="100%" viewBox="0 0 32 32" fill="none" xmlns="http://www.w3.org/2000/svg">
<g filter="url(#filter0_iii_18590_2654)">
<rect x="1.87939" y="2.5625" width="27.875" height="27.875" rx="3.6" fill="url(#paint0_linear_18590_2654)"/>
<rect x="1.87939" y="2.5625" width="27.875" height="27.875" rx="3.6" fill="url(#paint1_radial_18590_2654)"/>
</g>
<g filter="url(#filter1_f_18590_2654)">
<path d="M28.0669 5.0625V27.9375" stroke="url(#paint2_linear_18590_2654)" stroke-width="1.5" stroke-linecap="round"/>
</g>
<g filter="url(#filter2_f_18590_2654)">
<path d="M5.34326 4.375H27.1245" stroke="url(#paint3_linear_18590_2654)" stroke-width="1.5" stroke-linecap="round"/>
</g>
<g filter="url(#filter3_f_18590_2654)">
<path d="M15.8169 6.5C16.3692 6.5 16.8169 6.94772 16.8169 7.5V8.375C16.8169 8.44404 16.8729 8.5 16.9419 8.5H23.8169C24.3692 8.5 24.8169 8.94772 24.8169 9.5V20.5C24.8169 21.0523 24.3692 21.5 23.8169 21.5C23.3069 21.5 22.886 21.1182 22.8246 20.6248C22.8161 20.5562 22.7609 20.5 22.6919 20.5H16.9419C16.8729 20.5 16.8169 20.556 16.8169 20.625V25.5C16.8169 26.0523 16.3692 26.5 15.8169 26.5C15.2646 26.5 14.8169 26.0523 14.8169 25.5V20.625C14.8169 20.556 14.7609 20.5 14.6919 20.5H8.94189C8.87286 20.5 8.81771 20.5562 8.80919 20.6248C8.74779 21.1182 8.32693 21.5 7.81689 21.5C7.26461 21.5 6.81689 21.0523 6.81689 20.5V9.5C6.81689 8.94771 7.26461 8.5 7.81689 8.5H14.6919C14.7609 8.5 14.8169 8.44404 14.8169 8.375V7.5C14.8169 6.94772 15.2646 6.5 15.8169 6.5ZM16.9419 10.5C16.8729 10.5 16.8169 10.556 16.8169 10.625V13.375C16.8169 13.444 16.8729 13.5 16.9419 13.5H22.6919C22.7609 13.5 22.8169 13.444 22.8169 13.375V10.625C22.8169 10.556 22.7609 10.5 22.6919 10.5H16.9419ZM16.9419 15.5C16.8729 15.5 16.8169 15.556 16.8169 15.625V18.375C16.8169 18.444 16.8729 18.5 16.9419 18.5H22.6919C22.7609 18.5 22.8169 18.444 22.8169 18.375V15.625C22.8169 15.556 22.7609 15.5 22.6919 15.5H16.9419ZM14.6919 18.5C14.7609 18.5 14.8169 18.444 14.8169 18.375V15.625C14.8169 15.556 14.7609 15.5 14.6919 15.5H8.94189C8.87286 15.5 8.81689 15.556 8.81689 15.625V18.375C8.81689 18.444 8.87286 18.5 8.94189 18.5H14.6919ZM14.6919 13.5C14.7609 13.5 14.8169 13.444 14.8169 13.375V10.625C14.8169 10.556 14.7609 10.5 14.6919 10.5H8.94189C8.87286 10.5 8.81689 10.556 8.81689 10.625V13.375C8.81689 13.444 8.87286 13.5 8.94189 13.5H14.6919Z" fill="#FF8A53"/>
</g>
<g filter="url(#filter4_ii_18590_2654)">
<path d="M15.8169 6.5C16.3692 6.5 16.8169 6.94772 16.8169 7.5V8.375C16.8169 8.44404 16.8729 8.5 16.9419 8.5H23.8169C24.3692 8.5 24.8169 8.94772 24.8169 9.5V20.5C24.8169 21.0523 24.3692 21.5 23.8169 21.5C23.3069 21.5 22.886 21.1182 22.8246 20.6248C22.8161 20.5562 22.7609 20.5 22.6919 20.5H16.9419C16.8729 20.5 16.8169 20.556 16.8169 20.625V25.5C16.8169 26.0523 16.3692 26.5 15.8169 26.5C15.2646 26.5 14.8169 26.0523 14.8169 25.5V20.625C14.8169 20.556 14.7609 20.5 14.6919 20.5H8.94189C8.87286 20.5 8.81771 20.5562 8.80919 20.6248C8.74779 21.1182 8.32693 21.5 7.81689 21.5C7.26461 21.5 6.81689 21.0523 6.81689 20.5V9.5C6.81689 8.94771 7.26461 8.5 7.81689 8.5H14.6919C14.7609 8.5 14.8169 8.44404 14.8169 8.375V7.5C14.8169 6.94772 15.2646 6.5 15.8169 6.5ZM16.9419 10.5C16.8729 10.5 16.8169 10.556 16.8169 10.625V13.375C16.8169 13.444 16.8729 13.5 16.9419 13.5H22.6919C22.7609 13.5 22.8169 13.444 22.8169 13.375V10.625C22.8169 10.556 22.7609 10.5 22.6919 10.5H16.9419ZM16.9419 15.5C16.8729 15.5 16.8169 15.556 16.8169 15.625V18.375C16.8169 18.444 16.8729 18.5 16.9419 18.5H22.6919C22.7609 18.5 22.8169 18.444 22.8169 18.375V15.625C22.8169 15.556 22.7609 15.5 22.6919 15.5H16.9419ZM14.6919 18.5C14.7609 18.5 14.8169 18.444 14.8169 18.375V15.625C14.8169 15.556 14.7609 15.5 14.6919 15.5H8.94189C8.87286 15.5 8.81689 15.556 8.81689 15.625V18.375C8.81689 18.444 8.87286 18.5 8.94189 18.5H14.6919ZM14.6919 13.5C14.7609 13.5 14.8169 13.444 14.8169 13.375V10.625C14.8169 10.556 14.7609 10.5 14.6919 10.5H8.94189C8.87286 10.5 8.81689 10.556 8.81689 10.625V13.375C8.81689 13.444 8.87286 13.5 8.94189 13.5H14.6919Z" fill="#FCF2FF"/>
</g>
<defs>
<filter id="filter0_iii_18590_2654" x="1.37939" y="1.5625" width="29.375" height="29.375" filterUnits="userSpaceOnUse" color-interpolation-filters="sRGB">
<feFlood flood-opacity="0" result="BackgroundImageFix"/>
<feBlend mode="normal" in="SourceGraphic" in2="BackgroundImageFix" result="shape"/>
<feColorMatrix in="SourceAlpha" type="matrix" values="0 0 0 0 0 0 0 0 0 0 0 0 0 0 0 0 0 0 127 0" result="hardAlpha"/>
<feOffset dx="1" dy="-1"/>
<feGaussianBlur stdDeviation="1.5"/>
<feComposite in2="hardAlpha" operator="arithmetic" k2="-1" k3="1"/>
<feColorMatrix type="matrix" values="0 0 0 0 0.992157 0 0 0 0 0.384314 0 0 0 0 0.164706 0 0 0 1 0"/>
<feBlend mode="normal" in2="shape" result="effect1_innerShadow_18590_2654"/>
<feColorMatrix in="SourceAlpha" type="matrix" values="0 0 0 0 0 0 0 0 0 0 0 0 0 0 0 0 0 0 127 0" result="hardAlpha"/>
<feOffset dy="-1"/>
<feGaussianBlur stdDeviation="1.5"/>
<feComposite in2="hardAlpha" operator="arithmetic" k2="-1" k3="1"/>
<feColorMatrix type="matrix" values="0 0 0 0 1 0 0 0 0 0.32549 0 0 0 0 0.168627 0 0 0 1 0"/>
<feBlend mode="normal" in2="effect1_innerShadow_18590_2654" result="effect2_innerShadow_18590_2654"/>
<feColorMatrix in="SourceAlpha" type="matrix" values="0 0 0 0 0 0 0 0 0 0 0 0 0 0 0 0 0 0 127 0" result="hardAlpha"/>
<feOffset dx="-0.5" dy="0.5"/>
<feGaussianBlur stdDeviation="0.5"/>
<feComposite in2="hardAlpha" operator="arithmetic" k2="-1" k3="1"/>
<feColorMatrix type="matrix" values="0 0 0 0 1 0 0 0 0 0.741176 0 0 0 0 0.25098 0 0 0 1 0"/>
<feBlend mode="normal" in2="effect2_innerShadow_18590_2654" result="effect3_innerShadow_18590_2654"/>
</filter>
<filter id="filter1_f_18590_2654" x="25.3169" y="2.3125" width="5.5" height="28.375" filterUnits="userSpaceOnUse" color-interpolation-filters="sRGB">
<feFlood flood-opacity="0" result="BackgroundImageFix"/>
<feBlend mode="normal" in="SourceGraphic" in2="BackgroundImageFix" result="shape"/>
<feGaussianBlur stdDeviation="1" result="effect1_foregroundBlur_18590_2654"/>
</filter>
<filter id="filter2_f_18590_2654" x="2.59326" y="1.625" width="27.2812" height="5.5" filterUnits="userSpaceOnUse" color-interpolation-filters="sRGB">
<feFlood flood-opacity="0" result="BackgroundImageFix"/>
<feBlend mode="normal" in="SourceGraphic" in2="BackgroundImageFix" result="shape"/>
<feGaussianBlur stdDeviation="1" result="effect1_foregroundBlur_18590_2654"/>
</filter>
<filter id="filter3_f_18590_2654" x="5.81689" y="5.5" width="20" height="22" filterUnits="userSpaceOnUse" color-interpolation-filters="sRGB">
<feFlood flood-opacity="0" result="BackgroundImageFix"/>
<feBlend mode="normal" in="SourceGraphic" in2="BackgroundImageFix" result="shape"/>
<feGaussianBlur stdDeviation="0.5" result="effect1_foregroundBlur_18590_2654"/>
</filter>
<filter id="filter4_ii_18590_2654" x="6.41689" y="6.1" width="18.8" height="20.8" filterUnits="userSpaceOnUse" color-interpolation-filters="sRGB">
<feFlood flood-opacity="0" result="BackgroundImageFix"/>
<feBlend mode="normal" in="SourceGraphic" in2="BackgroundImageFix" result="shape"/>
<feColorMatrix in="SourceAlpha" type="matrix" values="0 0 0 0 0 0 0 0 0 0 0 0 0 0 0 0 0 0 127 0" result="hardAlpha"/>
<feOffset dx="-0.4" dy="0.4"/>
<feGaussianBlur stdDeviation="0.375"/>
<feComposite in2="hardAlpha" operator="arithmetic" k2="-1" k3="1"/>
<feColorMatrix type="matrix" values="0 0 0 0 0.913725 0 0 0 0 0.886275 0 0 0 0 0.968627 0 0 0 1 0"/>
<feBlend mode="normal" in2="shape" result="effect1_innerShadow_18590_2654"/>
<feColorMatrix in="SourceAlpha" type="matrix" values="0 0 0 0 0 0 0 0 0 0 0 0 0 0 0 0 0 0 127 0" result="hardAlpha"/>
<feOffset dx="0.4" dy="-0.4"/>
<feGaussianBlur stdDeviation="0.2"/>
<feComposite in2="hardAlpha" operator="arithmetic" k2="-1" k3="1"/>
<feColorMatrix type="matrix" values="0 0 0 0 1 0 0 0 0 0.988235 0 0 0 0 1 0 0 0 1 0"/>
<feBlend mode="normal" in2="effect1_innerShadow_18590_2654" result="effect2_innerShadow_18590_2654"/>
</filter>
<linearGradient id="paint0_linear_18590_2654" x1="15.8169" y1="6.13701" x2="15.8169" y2="39.3897" gradientUnits="userSpaceOnUse">
<stop stop-color="#FFA851"/>
<stop offset="1" stop-color="#FF7E50"/>
</linearGradient>
<radialGradient id="paint1_radial_18590_2654" cx="0" cy="0" r="1" gradientUnits="userSpaceOnUse" gradientTransform="translate(27.5356 4.65625) rotate(136.771) scale(2.14444 2.50466)">
<stop stop-color="#FFD774"/>
<stop offset="1" stop-color="#FF77B1" stop-opacity="0"/>
<stop offset="1" stop-color="#FFD774" stop-opacity="0"/>
</radialGradient>
<linearGradient id="paint2_linear_18590_2654" x1="28.5669" y1="5.0625" x2="28.5669" y2="27.9375" gradientUnits="userSpaceOnUse">
<stop stop-color="#FFCE69"/>
<stop offset="1" stop-color="#FF9C61"/>
</linearGradient>
<linearGradient id="paint3_linear_18590_2654" x1="28.2808" y1="4.62502" x2="2.74951" y2="4.62502" gradientUnits="userSpaceOnUse">
<stop stop-color="#FFC85B"/>
<stop offset="1" stop-color="#FFB156"/>
</linearGradient>
</defs>
</svg>

<svg width="100%" height="100%" viewBox="0 0 32 32" xmlns="http://www.w3.org/2000/svg"><g filter="url(#a)"><rect width="27.875" height="27.875" x="1.879" y="2.563" fill="url(#b)" rx="3.6"/><rect width="27.875" height="27.875" x="1.879" y="2.563" fill="url(#c)" rx="3.6"/></g><g filter="url(#d)"><path stroke="url(#e)" stroke-linecap="round" stroke-width="1.5" d="M28.067 5.063v22.875"/></g><g filter="url(#f)"><path stroke="url(#g)" stroke-linecap="round" stroke-width="1.5" d="M5.343 4.375h21.782"/></g><g filter="url(#h)"><path fill="#FF8A53" d="M15.817 6.5a1 1 0 0 1 1 1v.875c0 .069.056.125.125.125h6.875a1 1 0 0 1 1 1v11a1 1 0 0 1-1.992.125c-.009-.069-.064-.125-.133-.125h-5.75a.125.125 0 0 0-.125.125V25.5a1 1 0 1 1-2 0v-4.875a.125.125 0 0 0-.125-.125h-5.75c-.07 0-.124.056-.133.125a1 1 0 0 1-1.992-.125v-11a1 1 0 0 1 1-1h6.875a.125.125 0 0 0 .125-.125V7.5a1 1 0 0 1 1-1m1.125 4a.125.125 0 0 0-.125.125v2.75c0 .069.056.125.125.125h5.75a.125.125 0 0 0 .125-.125v-2.75a.125.125 0 0 0-.125-.125zm0 5a.125.125 0 0 0-.125.125v2.75c0 .069.056.125.125.125h5.75a.125.125 0 0 0 .125-.125v-2.75a.125.125 0 0 0-.125-.125zm-2.25 3a.125.125 0 0 0 .125-.125v-2.75a.125.125 0 0 0-.125-.125h-5.75a.125.125 0 0 0-.125.125v2.75c0 .069.056.125.125.125zm0-5a.125.125 0 0 0 .125-.125v-2.75a.125.125 0 0 0-.125-.125h-5.75a.125.125 0 0 0-.125.125v2.75c0 .069.056.125.125.125z"/></g><g filter="url(#i)"><path fill="#FCF2FF" d="M15.817 6.5a1 1 0 0 1 1 1v.875c0 .069.056.125.125.125h6.875a1 1 0 0 1 1 1v11a1 1 0 0 1-1.992.125c-.009-.069-.064-.125-.133-.125h-5.75a.125.125 0 0 0-.125.125V25.5a1 1 0 1 1-2 0v-4.875a.125.125 0 0 0-.125-.125h-5.75c-.07 0-.124.056-.133.125a1 1 0 0 1-1.992-.125v-11a1 1 0 0 1 1-1h6.875a.125.125 0 0 0 .125-.125V7.5a1 1 0 0 1 1-1m1.125 4a.125.125 0 0 0-.125.125v2.75c0 .069.056.125.125.125h5.75a.125.125 0 0 0 .125-.125v-2.75a.125.125 0 0 0-.125-.125zm0 5a.125.125 0 0 0-.125.125v2.75c0 .069.056.125.125.125h5.75a.125.125 0 0 0 .125-.125v-2.75a.125.125 0 0 0-.125-.125zm-2.25 3a.125.125 0 0 0 .125-.125v-2.75a.125.125 0 0 0-.125-.125h-5.75a.125.125 0 0 0-.125.125v2.75c0 .069.056.125.125.125zm0-5a.125.125 0 0 0 .125-.125v-2.75a.125.125 0 0 0-.125-.125h-5.75a.125.125 0 0 0-.125.125v2.75c0 .069.056.125.125.125z"/></g><defs><filter id="a" width="29.375" height="29.375" x="1.379" y="1.563" color-interpolation-filters="sRGB" filterUnits="userSpaceOnUse"><feFlood flood-opacity="0" result="BackgroundImageFix"/><feBlend in="SourceGraphic" in2="BackgroundImageFix" result="shape"/><feColorMatrix in="SourceAlpha" result="hardAlpha" values="0 0 0 0 0 0 0 0 0 0 0 0 0 0 0 0 0 0 127 0"/><feOffset dx="1" dy="-1"/><feGaussianBlur stdDeviation="1.5"/><feComposite in2="hardAlpha" k2="-1" k3="1" operator="arithmetic"/><feColorMatrix values="0 0 0 0 0.992157 0 0 0 0 0.384314 0 0 0 0 0.164706 0 0 0 1 0"/><feBlend in2="shape" result="effect1_innerShadow_18590_2654"/><feColorMatrix in="SourceAlpha" result="hardAlpha" values="0 0 0 0 0 0 0 0 0 0 0 0 0 0 0 0 0 0 127 0"/><feOffset dy="-1"/><feGaussianBlur stdDeviation="1.5"/><feComposite in2="hardAlpha" k2="-1" k3="1" operator="arithmetic"/><feColorMatrix values="0 0 0 0 1 0 0 0 0 0.32549 0 0 0 0 0.168627 0 0 0 1 0"/><feBlend in2="effect1_innerShadow_18590_2654" result="effect2_innerShadow_18590_2654"/><feColorMatrix in="SourceAlpha" result="hardAlpha" values="0 0 0 0 0 0 0 0 0 0 0 0 0 0 0 0 0 0 127 0"/><feOffset dx="-.5" dy=".5"/><feGaussianBlur stdDeviation=".5"/><feComposite in2="hardAlpha" k2="-1" k3="1" operator="arithmetic"/><feColorMatrix values="0 0 0 0 1 0 0 0 0 0.741176 0 0 0 0 0.25098 0 0 0 1 0"/><feBlend in2="effect2_innerShadow_18590_2654" result="effect3_innerShadow_18590_2654"/></filter><filter id="d" width="5.5" height="28.375" x="25.317" y="2.313" color-interpolation-filters="sRGB" filterUnits="userSpaceOnUse"><feFlood flood-opacity="0" result="BackgroundImageFix"/><feBlend in="SourceGraphic" in2="BackgroundImageFix" result="shape"/><feGaussianBlur result="effect1_foregroundBlur_18590_2654" stdDeviation="1"/></filter><filter id="f" width="27.281" height="5.5" x="2.593" y="1.625" color-interpolation-filters="sRGB" filterUnits="userSpaceOnUse"><feFlood flood-opacity="0" result="BackgroundImageFix"/><feBlend in="SourceGraphic" in2="BackgroundImageFix" result="shape"/><feGaussianBlur result="effect1_foregroundBlur_18590_2654" stdDeviation="1"/></filter><filter id="h" width="20" height="22" x="5.817" y="5.5" color-interpolation-filters="sRGB" filterUnits="userSpaceOnUse"><feFlood flood-opacity="0" result="BackgroundImageFix"/><feBlend in="SourceGraphic" in2="BackgroundImageFix" result="shape"/><feGaussianBlur result="effect1_foregroundBlur_18590_2654" stdDeviation=".5"/></filter><filter id="i" width="18.8" height="20.8" x="6.417" y="6.1" color-interpolation-filters="sRGB" filterUnits="userSpaceOnUse"><feFlood flood-opacity="0" result="BackgroundImageFix"/><feBlend in="SourceGraphic" in2="BackgroundImageFix" result="shape"/><feColorMatrix in="SourceAlpha" result="hardAlpha" values="0 0 0 0 0 0 0 0 0 0 0 0 0 0 0 0 0 0 127 0"/><feOffset dx="-.4" dy=".4"/><feGaussianBlur stdDeviation=".375"/><feComposite in2="hardAlpha" k2="-1" k3="1" operator="arithmetic"/><feColorMatrix values="0 0 0 0 0.913725 0 0 0 0 0.886275 0 0 0 0 0.968627 0 0 0 1 0"/><feBlend in2="shape" result="effect1_innerShadow_18590_2654"/><feColorMatrix in="SourceAlpha" result="hardAlpha" values="0 0 0 0 0 0 0 0 0 0 0 0 0 0 0 0 0 0 127 0"/><feOffset dx=".4" dy="-.4"/><feGaussianBlur stdDeviation=".2"/><feComposite in2="hardAlpha" k2="-1" k3="1" operator="arithmetic"/><feColorMatrix values="0 0 0 0 1 0 0 0 0 0.988235 0 0 0 0 1 0 0 0 1 0"/><feBlend in2="effect1_innerShadow_18590_2654" result="effect2_innerShadow_18590_2654"/></filter><linearGradient id="b" x1="15.817" x2="15.817" y1="6.137" y2="39.39" gradientUnits="userSpaceOnUse"><stop stop-color="#FFA851"/><stop offset="1" stop-color="#FF7E50"/></linearGradient><linearGradient id="e" x1="28.567" x2="28.567" y1="5.063" y2="27.938" gradientUnits="userSpaceOnUse"><stop stop-color="#FFCE69"/><stop offset="1" stop-color="#FF9C61"/></linearGradient><linearGradient id="g" x1="28.281" x2="2.75" y1="4.625" y2="4.625" gradientUnits="userSpaceOnUse"><stop stop-color="#FFC85B"/><stop offset="1" stop-color="#FFB156"/></linearGradient><radialGradient id="c" cx="0" cy="0" r="1" gradientTransform="matrix(-1.56249 1.46876 -1.71548 -1.82495 27.536 4.656)" gradientUnits="userSpaceOnUse"><stop stop-color="#FFD774"/><stop offset="1" stop-color="#FF77B1" stop-opacity="0"/><stop offset="1" stop-color="#FFD774" stop-opacity="0"/></radialGradient></defs></svg>
